gtk/icons/scalable/actions/edit-select-all-symbolic.svg

<svg width='16' height='16'
     xmlns:gpa='https://www.gtk.org/grappa'
     gpa:version='1'
     gpa:keywords='edit select all marching ants'
     gpa:state='0'>
  <path d='M 6 1 L 5 1 M 11 1 L 9 1 M 15 6 L 15 5 M 15 11 L 15 9 M 10 15 L 11 15 M 5 15 L 7 15 M 1 10 L 1 11 M 1 5 L 1 7 M 5.02799988 9 L 6.97200012 9 C 6.98799992 9, 7 9.01200008, 7 9.02799988 L 7 10.9720001 C 6.9990263 10.9870424, 6.98704243 10.9990263, 6.97200012 11 L 5.02799988 11 C 5.01295757 10.9990263, 5.0009737 10.9870424, 5 10.9720001 L 5 9.02799988 C 5 9.01200008, 5.01200008 9, 5.02799988 9 Z M 9.02799988 5 L 10.9720001 5 C 10.9879999 5, 11 5.01200008, 11 5.02799988 L 11 6.97200012 C 10.9990263 6.98704243, 10.9870424 6.9990263, 10.9720001 7 L 9.02799988 7 C 9.01295757 6.9990263, 9.0009737 6.98704243, 9 6.97200012 L 9 5.02799988 C 9 5.01200008, 9.01200008 5, 9.02799988 5 Z M 10.0279999 10 L 10.9720001 10 C 10.9879999 10, 11 10.0120001, 11 10.0279999 L 11 10.9720001 C 10.9990263 10.9870424, 10.9870424 10.9990263, 10.9720001 11 L 10.0279999 11 C 10.0129576 10.9990263, 10.0009737 10.9870424, 10 10.9720001 L 10 10.0279999 C 10 10.0120001, 10.0120001 10, 10.0279999 10 Z M 5.02799988 5 L 5.97200012 5 Q 5.99800014 5.00199986, 6 5.02799988 L 6 5.97200012 C 5.9990263 5.98704243, 5.98704243 5.9990263, 5.97200012 6 L 5.02799988 6 C 5.01295757 5.9990263, 5.0009737 5.98704243, 5 5.97200012 L 5 5.02799988 Q 5.00199986 5.00199986, 5.02799988 5 Z M 14 1 L 15 1 L 15 2 L 14 2 Z M 1 14 L 2 14 L 2 15 L 1 15 Z M 14 14 L 15 14 L 15 15 L 14 15 Z M 1 1 L 2 1 L 2 2 L 1 2 Z'
        id='path0'
        stroke-width='2'
        stroke-linecap='round'
        stroke-linejoin='round'
        stroke='rgb(0,0,0)'
        fill='none'
        class='foreground-stroke transparent-fill'/>
</svg>

<svg xmlns="http://www.w3.org/2000/svg" width="16" height="16" viewBox="0 0 16 16"><path d="M6 1H5m6 0H9m6 5V5m0 6V9m-5 6h1m-6 0h2m-6-5v1m0-6v2m4.028 2h1.944c.016 0 .028.012.028.028v1.944a.03.03 0 0 1-.028.028H5.028A.03.03 0 0 1 5 10.972V9.028C5 9.012 5.012 9 5.028 9Zm4-4h1.944c.016 0 .028.012.028.028v1.944a.03.03 0 0 1-.028.028H9.028A.03.03 0 0 1 9 6.972V5.028C9 5.012 9.012 5 9.028 5Zm1 5h.944c.016 0 .028.012.028.028v.944a.03.03 0 0 1-.028.028h-.944a.03.03 0 0 1-.028-.028v-.944c0-.016.012-.028.028-.028Zm-5-5h.944q.026.002.028.028v.944A.03.03 0 0 1 5.972 6h-.944A.03.03 0 0 1 5 5.972v-.944q.002-.026.028-.028ZM14 1h1v1h-1ZM1 14h1v1H1Zm13 0h1v1h-1ZM1 1h1v1H1Z" class="foreground-stroke transparent-fill" style="fill:none;stroke:#241f31;stroke-width:2;stroke-linecap:round;paint-order:stroke markers fill"/></svg>
